X:2
T:Nina
I:last changed 26/2/2016
F:http://www.campin.me.uk/Music/Edinbal.abc
C:Cyrille Brotto
M:9/8
L:1/8
K:EMin
   e2c B2c  e2c|B2c A6      |B2c B2G  E2G|B2c B2G  E2G|
   e2c B2c  e2c|B2c A6      |z2A d2e- e2c|B6-      B3:|
   A2B c2e- e2c|B2c g2e- e3 |B2c d2g- g2f|e2f g2B- B3 |
[1 A2B c2e- e2c|B2c g2e- e2c|B2c d2g- g2f|e2f g2b- b3:|
[2 A2B c2e- e2c|B2c g2e- e2B|e3  e6      |e6-      e3|]

